assets/images/mono-curved-bottom.svg

<svg width="132" height="122" viewBox="0 0 132 122" fill="none" xmlns="http://www.w3.org/2000/svg">
<path fill-rule="evenodd" clip-rule="evenodd" d="M92 22.8646C89.3227 23.8428 86.3278 24.3902 83.1667 24.3902C71.7835 24.3902 62.5555 17.2923 62.5555 8.53656C62.5555 5.39354 63.7446 2.46414 65.7957 0H44C41.2386 0 39 2.23858 39 5V68.1707C39 70.9322 41.2386 73.1707 44 73.1707H62.5555V95.5833C62.5555 98.0226 64.533 100 66.9722 100C69.4115 100 71.3889 98.0226 71.3889 95.5833V73.1707H87C89.7614 73.1707 92 70.9322 92 68.1707V22.8646ZM62.5555 34.6517C62.5555 33.0256 63.8738 31.7073 65.5 31.7073C67.1262 31.7073 68.4444 33.0256 68.4444 34.6518V53.1531C68.4444 54.7793 67.1262 56.0975 65.5 56.0975C63.8738 56.0975 62.5555 54.7793 62.5555 53.1531V34.6517ZM0.571991 105.828L5.35758 96.0242L6.86383 96.7595L2.07824 106.563L0.571991 105.828ZM6.92107 94.7642C6.62748 94.6209 6.42312 94.3973 6.308 94.0935C6.19713 93.7917 6.21024 93.5004 6.34732 93.2196C6.48441 92.9388 6.70601 92.7493 7.01213 92.651C7.3225 92.5549 7.62448 92.5785 7.91807 92.7218C8.21166 92.8652 8.41389 93.0877 8.52476 93.3894C8.63988 93.6933 8.6289 93.9856 8.49181 94.2664C8.35473 94.5473 8.131 94.7357 7.82063 94.8319C7.51451 94.9301 7.21466 94.9075 6.92107 94.7642ZM11.689 110.272C12.2092 110.985 12.9477 111.522 13.9044 111.883C14.6574 112.168 15.3701 112.278 16.0425 112.213C16.7209 112.145 17.3233 111.938 17.8495 111.59C18.3818 111.239 18.8061 110.779 19.1222 110.211L17.5543 109.618C17.3163 109.953 17.0319 110.21 16.7012 110.389C16.3704 110.568 16.0122 110.665 15.6265 110.682C15.2407 110.698 14.8441 110.629 14.4366 110.475C13.8165 110.241 13.3372 109.875 12.9987 109.377C12.6647 108.882 12.4819 108.294 12.4503 107.614C12.4232 106.935 12.5585 106.202 12.8564 105.414C13.1476 104.643 13.5273 104.02 13.9957 103.544C14.4701 103.065 14.9949 102.755 15.5699 102.612C16.151 102.468 16.7472 102.511 17.3584 102.741C18.0494 103.003 18.53 103.392 18.8003 103.909C19.0767 104.423 19.1868 104.936 19.1307 105.446L20.6986 106.038C20.851 105.367 20.8338 104.723 20.6469 104.105C20.46 103.488 20.1288 102.938 19.6534 102.455C19.178 101.971 18.5816 101.594 17.864 101.323C16.9427 100.975 16.0513 100.896 15.1896 101.087C14.3341 101.275 13.563 101.695 12.8764 102.346C12.196 102.995 11.6599 103.838 11.2684 104.874C10.8835 105.893 10.7273 106.869 10.7998 107.803C10.8723 108.736 11.1687 109.559 11.689 110.272ZM30.5295 117.072C29.5096 116.818 28.6859 116.373 28.0584 115.739C27.4367 115.101 27.0273 114.325 26.8303 113.412C26.639 112.496 26.6785 111.496 26.9488 110.412C27.219 109.327 27.6547 108.421 28.256 107.692C28.8629 106.961 29.5803 106.451 30.4081 106.165C31.2416 105.875 32.1361 105.849 33.0917 106.087C33.6431 106.224 34.1646 106.452 34.6563 106.77C35.148 107.088 35.5629 107.508 35.9009 108.032C36.24 108.55 36.4564 109.18 36.5499 109.921C36.6435 110.661 36.5671 111.526 36.3209 112.513L36.1492 113.202L28.4619 111.286C28.3097 111.997 28.2958 112.635 28.4201 113.201C28.5629 113.822 28.8464 114.339 29.2704 114.752C29.6956 115.161 30.2367 115.447 30.8937 115.611C31.3209 115.717 31.7217 115.754 32.0961 115.72C32.4762 115.683 32.8229 115.574 33.1363 115.394C33.4508 115.209 33.7228 114.95 33.9522 114.617L35.4135 115.449C35.1153 115.941 34.7206 116.34 34.2293 116.647C33.7391 116.95 33.1789 117.142 32.5485 117.224C31.9192 117.301 31.2462 117.251 30.5295 117.072ZM29.5347 108.582C29.2093 108.965 28.9698 109.398 28.8165 109.882L34.8456 111.384C34.9945 110.787 35.0079 110.224 34.8858 109.696C34.7683 109.169 34.5251 108.716 34.1562 108.336C33.7919 107.957 33.3157 107.695 32.7276 107.548C32.0798 107.387 31.4792 107.408 30.9259 107.611C30.3782 107.812 29.9145 108.135 29.5347 108.582ZM55.9027 120.374C56.6155 120.894 57.4825 121.181 58.5039 121.234C59.3078 121.275 60.02 121.163 60.6406 120.896C61.2663 120.625 61.7767 120.243 62.1719 119.752C62.572 119.256 62.836 118.689 62.9638 118.05L61.2899 117.964C61.1654 118.356 60.9728 118.687 60.7123 118.958C60.4517 119.229 60.1402 119.431 59.7778 119.564C59.4153 119.697 59.0166 119.752 58.5816 119.73C57.9196 119.696 57.3516 119.493 56.8777 119.123C56.4085 118.752 56.0552 118.248 55.8179 117.61C55.5854 116.972 55.4908 116.232 55.5343 115.391C55.5768 114.568 55.7485 113.859 56.0496 113.263C56.3556 112.662 56.7608 112.206 57.2652 111.896C57.7745 111.581 58.3555 111.44 59.008 111.474C59.7457 111.512 60.322 111.736 60.737 112.146C61.157 112.552 61.4179 113.006 61.52 113.51L63.1939 113.596C63.1345 112.91 62.9217 112.302 62.5556 111.771C62.1895 111.24 61.7065 110.817 61.1064 110.501C60.5064 110.186 59.8233 110.008 59.0573 109.969C58.0738 109.918 57.2007 110.115 56.4381 110.559C55.6805 110.999 55.0741 111.633 54.6187 112.463C54.1684 113.289 53.9146 114.255 53.8574 115.361C53.8013 116.449 53.9499 117.426 54.3034 118.293C54.6569 119.16 55.19 119.853 55.9027 120.374ZM71.3074 121.136L70.7446 110.241L72.3618 110.157L72.4468 111.803L72.5603 111.797C72.731 111.248 73.0678 110.792 73.5706 110.429C74.0734 110.067 74.6511 109.869 75.3036 109.835C75.4266 109.828 75.5804 109.823 75.765 109.818C75.9497 109.813 76.0895 109.813 76.1846 109.818L76.2725 111.52C76.215 111.509 76.0839 111.494 75.8791 111.476C75.6788 111.454 75.4675 111.448 75.2453 111.459C74.7157 111.487 74.2486 111.622 73.8439 111.866C73.4438 112.105 73.1332 112.424 72.912 112.824C72.6954 113.22 72.5998 113.663 72.6252 114.155L72.9813 121.049L71.3074 121.136ZM86.256 119.38C87.0808 119.721 88.0124 119.81 89.051 119.648C89.7808 119.534 90.4206 119.319 90.9703 119.004C91.5193 118.683 91.9609 118.288 92.295 117.819C92.6284 117.345 92.837 116.824 92.9207 116.255L91.2506 116.056C91.1687 116.452 91.0188 116.796 90.8009 117.089C90.5823 117.377 90.3051 117.612 89.9693 117.794C89.6374 117.97 89.2539 118.093 88.8188 118.16C88.1498 118.265 87.5401 118.211 86.9896 118C86.4383 117.784 85.9762 117.418 85.6032 116.901C85.2686 116.428 85.0335 115.834 84.8978 115.121L92.7255 113.899L92.616 113.197C92.459 112.192 92.1935 111.366 91.8196 110.72C91.4456 110.073 91.0015 109.577 90.4874 109.231C89.9726 108.88 89.4269 108.654 88.8504 108.552C88.2738 108.45 87.7049 108.443 87.1435 108.531C86.1704 108.683 85.3562 109.054 84.7009 109.645C84.0495 110.231 83.5864 110.979 83.3115 111.889C83.0406 112.794 82.9913 113.799 83.1636 114.903C83.3359 116.007 83.6882 116.944 84.2205 117.714C84.7567 118.478 85.4352 119.034 86.256 119.38ZM84.6786 113.689C84.6322 113.184 84.6844 112.692 84.8355 112.212C85.0117 111.653 85.3133 111.174 85.7401 110.777C86.1708 110.374 86.716 110.122 87.3756 110.019C87.9745 109.925 88.5153 109.982 88.9981 110.189C89.4856 110.396 89.8859 110.719 90.199 111.159C90.5167 111.599 90.723 112.122 90.8179 112.73L84.6786 113.689ZM104.625 116.373C103.959 116.558 103.32 116.601 102.707 116.501C102.093 116.397 101.56 116.15 101.107 115.76C100.653 115.366 100.331 114.827 100.14 114.142C99.9723 113.54 99.9548 113.019 100.088 112.579C100.219 112.134 100.454 111.75 100.791 111.425C101.128 111.1 101.521 110.818 101.971 110.58C102.424 110.336 102.886 110.114 103.356 109.914C103.971 109.654 104.472 109.448 104.857 109.296C105.246 109.139 105.517 108.982 105.67 108.826C105.828 108.669 105.871 108.461 105.798 108.201L105.783 108.146C105.595 107.471 105.264 106.998 104.79 106.727C104.321 106.455 103.715 106.422 102.971 106.629C102.201 106.844 101.643 107.181 101.299 107.641C100.956 108.1 100.748 108.546 100.677 108.979L98.992 108.859C99.0877 108.144 99.3141 107.545 99.671 107.062C100.031 106.574 100.463 106.183 100.966 105.89C101.473 105.592 101.991 105.369 102.52 105.221C102.858 105.127 103.257 105.06 103.717 105.02C104.181 104.975 104.653 105.018 105.132 105.15C105.616 105.28 106.064 105.556 106.476 105.977C106.888 106.398 107.211 107.026 107.443 107.86L109.373 114.784L107.758 115.234L107.362 113.811L107.279 113.834C107.234 114.092 107.119 114.387 106.936 114.718C106.753 115.049 106.475 115.365 106.102 115.666C105.728 115.967 105.236 116.202 104.625 116.373ZM104.467 114.853C105.106 114.676 105.609 114.4 105.977 114.027C106.349 113.653 106.592 113.236 106.705 112.777C106.822 112.317 106.82 111.868 106.698 111.43L106.286 109.952C106.241 110.053 106.111 110.171 105.898 110.304C105.687 110.431 105.439 110.562 105.152 110.696C104.868 110.824 104.59 110.946 104.317 111.061C104.048 111.171 103.83 111.261 103.663 111.332C103.258 111.504 102.891 111.702 102.56 111.927C102.233 112.146 101.991 112.407 101.835 112.711C101.682 113.01 101.663 113.364 101.778 113.775C101.934 114.336 102.26 114.702 102.755 114.874C103.253 115.039 103.824 115.033 104.467 114.853ZM113.696 101.977L118.038 111.984L119.576 111.317L116.862 105.062C116.649 104.572 116.566 104.094 116.612 103.63C116.661 103.16 116.811 102.744 117.062 102.382C117.317 102.019 117.644 101.75 118.044 101.577C118.626 101.324 119.178 101.294 119.7 101.485C120.219 101.672 120.603 102.051 120.85 102.62L123.824 109.474L125.388 108.795L122.561 102.28C122.28 101.633 122.241 101.015 122.445 100.426C122.647 99.8321 123.1 99.3827 123.803 99.0774C124.35 98.8399 124.895 98.7921 125.436 98.9339C125.978 99.0757 126.409 99.5158 126.729 100.254L129.636 106.952L131.173 106.285L128.267 99.587C127.756 98.4099 127.096 97.6668 126.285 97.3577C125.473 97.0443 124.62 97.0817 123.725 97.47C123.008 97.781 122.461 98.2019 122.082 98.7327C121.701 99.2591 121.495 99.8364 121.463 100.464L121.359 100.51C120.879 100.083 120.354 99.8179 119.783 99.7148C119.214 99.6054 118.6 99.694 117.939 99.9805C117.288 100.263 116.795 100.655 116.46 101.157C116.123 101.654 115.967 102.215 115.99 102.839L115.86 102.896L115.181 101.332L113.696 101.977Z" fill="black"/>
</svg>

<svg xmlns="http://www.w3.org/2000/svg" fill="none" viewBox="0 0 132 122"><path fill="#000" fill-rule="evenodd" d="M92 22.865c-2.677.978-5.672 1.525-8.833 1.525-11.383 0-20.611-7.098-20.611-15.853 0-3.143 1.189-6.073 3.24-8.537H44a5 5 0 0 0-5 5v63.17a5 5 0 0 0 5 5h18.556v22.413a4.417 4.417 0 0 0 8.833 0V73.171H87a5 5 0 0 0 5-5V22.865ZM62.556 34.652a2.944 2.944 0 0 1 5.888 0v18.501a2.944 2.944 0 1 1-5.889 0V34.652ZM.572 105.828l4.786-9.804 1.506.736-4.786 9.803-1.506-.735Zm6.35-11.064a1.192 1.192 0 0 1-.614-.67 1.072 1.072 0 0 1 .04-.874c.136-.281.358-.47.664-.569.31-.096.612-.072.906.07.294.144.496.367.607.668.115.304.104.597-.033.877-.137.281-.361.47-.671.566a1.167 1.167 0 0 1-.9-.068Zm4.767 15.508c.52.713 1.259 1.25 2.215 1.611.753.285 1.466.395 2.139.33a3.932 3.932 0 0 0 1.806-.623 3.893 3.893 0 0 0 1.273-1.379l-1.568-.593a2.51 2.51 0 0 1-.853.771c-.33.179-.689.276-1.075.293a2.997 2.997 0 0 1-1.19-.207c-.62-.234-1.099-.6-1.437-1.098-.334-.495-.517-1.083-.549-1.763-.027-.679.109-1.412.406-2.2.292-.771.671-1.394 1.14-1.87.474-.479.999-.789 1.574-.932.581-.144 1.177-.101 1.788.129.691.262 1.172.651 1.442 1.168.277.514.387 1.027.33 1.537l1.569.592a3.722 3.722 0 0 0-.052-1.933 3.968 3.968 0 0 0-.994-1.65c-.475-.484-1.071-.861-1.789-1.132-.921-.348-1.813-.427-2.674-.236-.856.188-1.627.608-2.314 1.259-.68.649-1.216 1.492-1.608 2.528-.385 1.019-.54 1.995-.468 2.929.072.933.369 1.756.889 2.469Zm18.84 6.8c-1.02-.254-1.843-.699-2.47-1.333-.622-.638-1.032-1.414-1.229-2.327-.191-.916-.151-1.916.119-3 .27-1.085.706-1.991 1.307-2.72.607-.731 1.324-1.241 2.152-1.527.834-.29 1.728-.316 2.684-.078a5.155 5.155 0 0 1 1.564.683c.492.318.907.738 1.245 1.262.339.518.555 1.148.649 1.889.094.74.017 1.605-.23 2.592l-.17.689-7.688-1.916c-.152.711-.166 1.349-.042 1.915.143.621.426 1.138.85 1.551.426.409.967.695 1.624.859.427.106.828.143 1.202.109.38-.037.727-.146 1.04-.326a2.58 2.58 0 0 0 .816-.777l1.462.832a3.588 3.588 0 0 1-1.185 1.198 4.18 4.18 0 0 1-1.68.577c-.63.077-1.303.027-2.02-.152Zm-.994-8.49a3.723 3.723 0 0 0-.718 1.3l6.029 1.502c.149-.597.162-1.16.04-1.688a2.783 2.783 0 0 0-.73-1.36c-.364-.379-.84-.641-1.428-.788-.648-.161-1.249-.14-1.802.063a3.277 3.277 0 0 0-1.391.971Zm26.368 11.792c.712.52 1.58.807 2.6.86.805.041 1.517-.071 2.138-.338a3.933 3.933 0 0 0 1.53-1.144c.401-.496.665-1.063.793-1.702l-1.674-.086a2.502 2.502 0 0 1-.578.994c-.26.271-.572.473-.934.606a3.001 3.001 0 0 1-1.196.166c-.662-.034-1.23-.237-1.704-.607-.47-.371-.823-.875-1.06-1.513-.233-.638-.327-1.378-.284-2.219.043-.823.215-1.532.516-2.128.306-.601.71-1.057 1.215-1.367.51-.315 1.09-.456 1.743-.422.738.038 1.314.262 1.729.672.42.406.68.86.783 1.364l1.674.086a3.72 3.72 0 0 0-.638-1.825 3.976 3.976 0 0 0-1.45-1.27c-.6-.315-1.283-.493-2.049-.532-.983-.051-1.856.146-2.619.59-.758.44-1.364 1.074-1.82 1.904-.45.826-.703 1.792-.76 2.898-.057 1.088.092 2.065.445 2.932.354.867.887 1.56 1.6 2.081Zm15.404.762-.562-10.895 1.617-.084.085 1.646.113-.006c.171-.549.508-1.005 1.01-1.368a3.184 3.184 0 0 1 1.734-.594c.123-.007.276-.012.461-.017a5.72 5.72 0 0 1 .42 0l.087 1.702a5.118 5.118 0 0 0-.393-.044 3.995 3.995 0 0 0-.634-.017c-.53.028-.996.163-1.401.407-.4.239-.71.558-.932.958a2.453 2.453 0 0 0-.287 1.331l.356 6.894-1.674.087Zm14.949-1.756c.825.341 1.756.43 2.795.268.73-.114 1.37-.329 1.92-.644.548-.321.99-.716 1.324-1.185.333-.474.542-.995.626-1.564l-1.67-.199c-.082.396-.232.74-.45 1.033a2.558 2.558 0 0 1-.832.705 3.614 3.614 0 0 1-1.15.366c-.67.105-1.279.051-1.83-.16a3.074 3.074 0 0 1-1.386-1.099c-.334-.473-.57-1.067-.705-1.78l7.828-1.222-.11-.702c-.157-1.005-.422-1.831-.796-2.477-.374-.647-.819-1.143-1.333-1.489a4.174 4.174 0 0 0-1.637-.679 5.153 5.153 0 0 0-1.706-.021c-.974.152-1.788.523-2.443 1.114-.651.586-1.115 1.334-1.39 2.244-.27.905-.32 1.91-.147 3.014.172 1.104.524 2.041 1.056 2.811.537.764 1.215 1.32 2.036 1.666Zm-1.577-5.691a3.732 3.732 0 0 1 .156-1.477 3.27 3.27 0 0 1 .905-1.435c.43-.403.976-.655 1.636-.758.599-.094 1.14-.037 1.622.17.488.207.888.53 1.201.97.318.44.524.963.619 1.571l-6.14.959Zm19.946 2.684a4.435 4.435 0 0 1-1.918.128 3.229 3.229 0 0 1-1.6-.741c-.454-.394-.776-.933-.967-1.618-.168-.602-.185-1.123-.052-1.563.131-.445.366-.829.703-1.154.337-.325.73-.607 1.18-.845.453-.244.915-.466 1.385-.666a70.42 70.42 0 0 1 1.501-.618c.389-.157.66-.314.813-.47.158-.157.201-.365.128-.625l-.015-.055c-.188-.675-.519-1.148-.993-1.419-.469-.272-1.075-.305-1.819-.098-.77.215-1.328.552-1.672 1.012-.343.459-.551.905-.622 1.338l-1.685-.12c.096-.715.322-1.314.679-1.797.36-.488.792-.879 1.295-1.172a6.54 6.54 0 0 1 1.554-.669 6.667 6.667 0 0 1 1.197-.201 3.88 3.88 0 0 1 1.415.13c.484.13.932.406 1.344.827.412.421.735 1.049.967 1.883l1.93 6.924-1.615.45-.396-1.423-.083.023c-.045.258-.16.553-.343.884-.183.331-.461.647-.834.948-.374.301-.866.536-1.477.707Zm-.158-1.52c.639-.177 1.142-.453 1.51-.826.372-.374.615-.791.728-1.25.117-.46.115-.909-.007-1.347l-.412-1.478c-.045.101-.175.219-.388.352a8.093 8.093 0 0 1-.746.392 36.876 36.876 0 0 1-1.489.636c-.405.172-.772.37-1.103.595-.327.219-.569.48-.725.784-.153.299-.172.653-.057 1.064.156.561.482.927.977 1.099.498.165 1.069.159 1.712-.021Zm9.229-12.876 4.342 10.007 1.538-.667-2.714-6.255c-.213-.49-.296-.968-.25-1.432a2.63 2.63 0 0 1 .45-1.248c.255-.363.582-.632.982-.805.582-.253 1.134-.283 1.656-.092.519.187.903.566 1.15 1.135l2.974 6.854 1.564-.679-2.827-6.515c-.281-.647-.32-1.265-.116-1.854.202-.594.655-1.043 1.358-1.349.547-.237 1.092-.285 1.633-.143.542.142.973.582 1.293 1.32l2.907 6.698 1.537-.667-2.906-6.698c-.511-1.177-1.171-1.92-1.982-2.23-.812-.313-1.665-.275-2.56.113-.717.311-1.264.732-1.643 1.263a3.175 3.175 0 0 0-.619 1.731l-.104.046c-.48-.427-1.005-.692-1.576-.795-.569-.11-1.183-.021-1.844.266-.651.282-1.144.674-1.479 1.176a2.74 2.74 0 0 0-.47 1.682l-.13.057-.679-1.564-1.485.645Z" clip-rule="evenodd"/></svg>
